packages/foundations/assets/icons/functional/images/editing/cross_28.svg

<svg width="28" height="28" viewBox="0 0 28 28" fill="none" xmlns="http://www.w3.org/2000/svg">
<g clip-path="url(#clip0_77_981)">
<path fill-rule="evenodd" clip-rule="evenodd" d="M6.66599 5.41997L14 12.754L21.256 5.51197C21.3352 5.42831 21.4307 5.36187 21.5367 5.31679C21.6427 5.27171 21.7568 5.24897 21.872 5.24997C22.354 5.24997 22.75 5.61797 22.75 6.12797C22.75 6.35397 22.693 6.52397 22.496 6.72197L15.246 14L22.496 21.278C22.665 21.448 22.75 21.674 22.75 21.872C22.7519 21.9878 22.7305 22.1028 22.687 22.2102C22.6436 22.3176 22.579 22.4151 22.497 22.497C22.4151 22.5789 22.3176 22.6435 22.2102 22.687C22.1028 22.7304 21.9878 22.7519 21.872 22.75C21.646 22.75 21.476 22.693 21.278 22.496L14 15.246L6.74399 22.488C6.66483 22.5716 6.56928 22.6381 6.46329 22.6832C6.3573 22.7282 6.24316 22.751 6.12799 22.75C6.01217 22.7519 5.89715 22.7304 5.78977 22.687C5.68239 22.6435 5.58485 22.5789 5.50294 22.497C5.42103 22.4151 5.35643 22.3176 5.31297 22.2102C5.26952 22.1028 5.2481 21.9878 5.24999 21.872C5.24999 21.646 5.30699 21.476 5.50399 21.278L12.754 14L5.50399 6.72197C5.3457 6.56426 5.25467 6.35137 5.24999 6.12797C5.24999 5.64597 5.61799 5.24997 6.12799 5.24997C6.31993 5.25382 6.50669 5.31284 6.66599 5.41997Z" fill="#1A1C1F"/>
</g>
<defs>
<clipPath id="clip0_77_981">
<rect width="28" height="28" fill="white"/>
</clipPath>
</defs>
</svg>

<svg xmlns="http://www.w3.org/2000/svg" width="28" height="28" fill="none"><g clip-path="url(#a)"><path fill="#1A1C1F" fill-rule="evenodd" d="M6.666 5.42 14 12.754l7.256-7.242a.84.84 0 0 1 .616-.262c.482 0 .878.368.878.878 0 .226-.057.396-.254.594L15.246 14l7.25 7.278a.87.87 0 0 1 .191.932.86.86 0 0 1-.815.54c-.226 0-.396-.057-.594-.254L14 15.246l-7.256 7.242a.84.84 0 0 1-.616.262.865.865 0 0 1-.878-.878c0-.226.057-.396.254-.594L12.754 14l-7.25-7.278a.86.86 0 0 1-.254-.594c0-.482.368-.878.878-.878a1 1 0 0 1 .538.17" clip-rule="evenodd"/></g><defs><clipPath id="a"><path fill="#fff" d="M0 0h28v28H0z"/></clipPath></defs></svg>
